**kern	**dynam
*I"Voice	*
*clefG2	*
*k[f#]	*
*M2/4	*
=1	=1
[12EEL [12BB 12G 12B 12e	.
12EE_ 12BB_ 12G 12B 12e	.
12EEJ_ 12BB_ 12G 12B 12e	.
12EEL_ 12BB_ 12G 12B 12e	.
12EE_ 12BB_ 12G 12B 12e	.
12EEJ_ 12BB_ 12G 12B 12e	.
=2	=2
12EEL_ 12BB_ 12G 12B 12e	.
24EEk_ 24BB] [24G [24B [24e	.
24EEK_ [24E 24G] 24B] 24e]	.
12EEJ] 12E] 12G 12B 12e	.
[12GL 12B 12e	.
24Gk_ [24B [24e	.
[24F#K 24G] 24B] 24e]	.
12F#J] 12G 12B 12e	.
=3	=3
[12EL 12G 12B 12e	.
12E_ 12G 12B 12e	.
12EJ_ 12G 12B 12e	.
12EL_ 12G 12B 12e	.
24Ek] [24G [24B [24e	.
[24BBK 24G] 24B] 24e]	.
12BBJ] 12G 12B 12e	.
=4	=4
[12AAL 12F# 12A 12c 12e	.
24AAk] [24F# [24A [24c [24e	.
[24GGK 24F#] 24A] 24c] 24e]	.
12GGJ] 12F# 12A 12c 12e	.
[12AAL 12F# 12A 12c 12e	.
24AAk] [24F# [24A [24c [24e	.
[24BBK 24F#] 24A] 24c] 24e]	.
12BBJ] 12F# 12A 12c 12e	.
=5	=5
[12EEL 12G 12B 12e	.
12EE_ 12G 12B 12e	.
12EEJ] 12G 12B 12e	.
[12CCL 12F# 12A 12e	.
12CC_ 12F# 12A 12e	.
12CCJ] 12F# 12A 12e	.
=6	=6
[12BBBL 12F# 12B 12e	.
12BBB_ 12F# 12B 12e	.
12BBBJ_ 12F# 12B 12e	.
12BBBL_ 12F# 12B 12d#X	.
12BBB_ 12F# 12B 12d#	.
12BBBJ] 12F# 12B 12d#X	.
=7	=7
[12EEL 12G 12B [12e	.
12EE_ 12G 12B 12e_	.
12EEJ] 12G 12B 12e]	.
12GL 12B [12e	.
12G 12B 12e_	.
[48GKL [48B 48e_	.
16GJJ] 16B] 16e]	.
=8	=8
[12FF#L 12A [12B 12d#X	.
12FF#_ 12A 12B_ 12d#	.
12FF#J] 12A 12B] 12d#X	.
[12FF#L 12A 12B 12d#	.
12FF#_ 12A 12B 12d#X	.
48FF#KL] [48A [48B [48d#	.
16FF#JJ 16A] 16B] 16d#]	.
=9	=9
[12BBBL 12A 12B 12d#X [12f#	.
12BBB_ 12A 12B 12d#X 12f#_	.
12BBBJ] 12A 12B 12d#X 12f#]	.
12AL 12B 12d#X [12g	.
[24Ak [24B [24d#X 24g]	.
24AK] 24B] 24d#] [24f#	.
12AJ 12B 12d#X 12f#]	.
=10	=10
[12EEL 12G 12B [12e	.
12EE_ 12G 12B 12e_	.
12EEJ] 12G 12B 12e]	.
[12EEL 12G 12B 12e	.
12EE_ 12G 12B 12e	.
48EEKL] [48G [48B [48e	.
16FF#JJ 16G] 16B] 16e]	.
=11	=11
[12GGL 12G 12B 12e [12b	.
12GG_ 12G 12B 12e 12b_	.
12GGJ] 12G 12B 12e 12b]	.
12GL 12B 12e [12a	.
[24Gk [24B [24e 24a]	.
24GK] 24B] 24e] [24b	.
12GJ 12B 12e 12b]	.
=12	=12
[12AAL 12F# 12c 12e [12cc	.
12AA_ 12F# 12c 12e 12cc_	.
12AAJ] 12F# 12c 12e 12cc_	.
[12BBL 12F# 12A 12e 12cc_	.
24BBk_ [24F# [24A [24e 24cc]	.
24BBL_ 24F#] 24A] 24e] [24a	.
48BBK] [48F# [48A [48e 48a_	.
16CJJ 16F#] 16A] 16e] 16a]	.
=13	=13
[12BBL 12F# 12B 12e [12f#	.
12BB_ 12F# 12B 12e 12f#_	.
12BBJ] 12F# 12B 12e 12f#]	.
[12BBBL 12F# 12B 12d#X [12b	.
12BBB_ 12F# 12B 12d#X 12b_	.
12BBBJ] 12F# 12B 12d#X 12b]	.
=14	=14
[12EEL 12G 12B 12e [12g	.
12EE_ 12G 12B 12e 12g_	.
12EEJ] 12G 12B 12e 12g]	.
12GL 12B 12e	.
12G 12B 12e	.
12GJ 12B 12e	.
=15	=15
12G#XL 12dn 12e [12ee	.
12G#X 12d 12e 12ee_	.
12G#XJ 12d 12e 12ee]	.
12G#XL 12d 12e [12ee	.
12G#X 12d 12e 12ee_	.
[48G#XKL [48d [48e 48ee]	.
16G#JJ] 16d] 16e] 16ee	.
=16	=16
[12EEL [12E 12A 12c#X 12e [12ee	.
12EE_ 12E_ 12A 12c#X 12e 12ee_	.
12EEJ] 12E] 12A 12c#X 12e 12ee]	.
[12EEL [12E 12A 12c#X [12e	.
24EEk_ 24E_ [24A [24c#X 24e_	.
24EEL_ 24E_ 24A] 24c#] 24e]	.
48EEK] 48E] [48A [48c#X [48e	.
16EEJJ 16E 16A] 16c#] 16e]	.
=17	=17
[12EEL [12E 12A 12cn 12e [12ee	.
12EE_ 12E_ 12A 12c 12e 12ee_	.
12EEJ] 12E] 12A 12c 12e 12ee]	.
12AL 12c 12e [12ee	.
12A 12c 12e 12ee_	.
[48AKL [48c [48e 48ee]	.
16AJJ] 16c] 16e] 16ee	.
=18	=18
[12EEL [12E 12G#X 12B 12e [12ee	.
12EE_ 12E_ 12G#X 12B 12e 12ee_	.
12EEJ] 12E] 12G#X 12B 12e 12ee]	.
[12EEL [12E 12G#X 12B [12e	.
24EEk_ 24E_ [24G#X [24B 24e_	.
24EEL_ 24E_ 24G#] 24B] 24e]	.
48EEK] 48E] [48G#X [48B [48e	.
16EEJJ 16E 16G#] 16B] 16e]	.
=19	=19
[12EEL [12E 12Gn 12B 12e [12b	.
12EE_ 12E_ 12G 12B 12e 12b_	.
12EEJ] 12E] 12G 12B 12e 12b]	.
12GL 12B 12e [12a	.
[24Gk [24B [24e 24a]	.
24GK] 24B] 24e] [24b	.
12GJ 12B 12e 12b]	.
=20	=20
[12AAL 12F# 12c 12e [12cc	.
12AA_ 12F# 12c 12e 12cc_	.
12AAJ] 12F# 12c 12e 12cc_	.
[12BBL 12F# 12A 12e 12cc_	.
24BBk_ [24F# [24A [24e 24cc]	.
24BBL_ 24F#] 24A] 24e] [24a	.
48BBK] [48F# [48A [48e 48a_	.
16CJJ 16F#] 16A] 16e] 16a]	.
=21	=21
[12BBL 12F# 12B 12e [12b	.
12BB_ 12F# 12B 12e 12b_	.
12BBJ] 12F# 12B 12e 12b]	.
[12BBBL 12F# [12B 12d#X	.
12BBB_ 12F# 12B_ 12d#	.
12BBBJ] 12F# 12B] 12d#X	.
=22	=22
[12EEL 12G 12B [12e	.
12EE_ 12G 12B 12e_	.
12EEJ] 12G 12B 12e]	.
[12EEL 12B 12e 12g	.
12EE_ 12B 12e 12g	.
12EEJ] 12B 12e 12g	.
=23	=23
[12AAAL [12AA 12c 12e 12g	.
12AAA_ 12AA_ 12c 12e 12g	.
12AAAJ_ 12AA_ 12c 12e 12g	.
12AAAL_ 12AA_ 12c 12e 12g	.
12AAA_ 12AA_ 12c 12e 12g	.
12AAAJ] 12AA] 12c 12e 12g	.
=24	=24
[12AAA#XL [12AA#X 12c#X 12e 12g	.
12AAA#_ 12AA#_ 12c#X 12e 12g	.
12AAA#J_ 12AA#_ 12c#X 12e 12g	.
12AAA#L_ 12AA#_ 12c#X 12e 12f#	.
12AAA#_ 12AA#_ 12c#X 12e 12f#	.
12AAA#J] 12AA#] 12c#X 12e 12f#	.
=25	=25
12BBBL 12BB 12B 12d#X 12f#	.
12BB 12B	.
12BBJ 12B	.
12BBL 12B	.
12BB 12B	.
12BBJ 12B	.
=26	=26
12BBL 12B	.
12BB 12B	.
12BBJ 12B	.
12BBL 12B	.
12BB 12B	.
12BBJ 12B	.
=27	=27
12BBL [12B	.
12E 12G 12B_ 12e 12g	.
12BBJ 12E 12G 12B] 12e 12g	.
12BBL 12E 12G 12B 12e [12g	.
12BB 12E 12G 12B 12e 12g_	.
[48BBKL [48E [48G [48B [48e 48g_	.
16BBJJ] 16E] 16G] 16B] 16e] 16g]	.
=28	=28
12BBL 12D#X 12F# 12B 12d#X [12f#	.
12BB 12B 12f#_	.
12BBJ 12B 12f#]	.
12BBL [12B	.
[24BBk 24B_	.
24BBK] 24B_	.
12BBJ 12B]	.
=29	=29
12BBL [12B	.
12F# 12A 12B_ 12f# 12a	.
12BBJ 12F# 12A 12B_ 12f# 12a	.
12BBL 12F# 12A 12B_ 12f# 12a	.
[24BBk [24F# [24A 24B_ [24f# [24a	.
24BBK] 24F#] 24A] 24B] 24f#] 24a_	.
12BBJ 12F# 12A 12B 12f# 12a]	.
=30	=30
12BBL 12E 12G 12B 12e [12g	.
12BB 12B 12g_	.
12BBJ 12B 12g]	.
12BBL 12B	.
12BB 12B	.
12BBJ 12B	.
=31	=31
12BBL [12B	.
12G 12B_ 12g 12b	.
12BBJ 12G 12B] 12g 12b	.
12BBL 12G 12B 12g [12b	.
12BB 12G 12B 12g 12b_	.
[48BBKL [48G [48B [48g 48b_	.
16BBJJ] 16G] 16B] 16g] 16b]	.
=32	=32
12BBL 12F# 12A 12f# [12a	.
12BB 12B 12a_	.
12BB'J 12B 12a]	.
12BBL [12B	.
[24BBk 24B_	.
24BBK] 24B_	.
12BBJ 12B]	.
=33	=33
12BBL [12B	.
12A 12B_ 12c 12a 12cc	.
12BBJ 12A 12B] 12c 12a 12cc	.
12BBL 12A 12c 12a [12cc	.
[24BBk [24A [24c [24a 24cc_	.
24BBK] 24A] 24c] 24a] 24cc_	.
12BBJ 12A 12c 12a 12cc]	.
=34	=34
12BBL 12G 12B 12g [12b	.
12BB 12B 12b_	.
12BBJ 12B 12b]	.
12BBL 12B	.
12BB 12B	.
12BBJ 12B	.
=35	=35
12BBL 12G 12d 12b [12dd	.
12BB 12G 12d 12b 12dd_	.
12BBJ 12G 12d 12b 12dd_	.
12BBL 12G 12d 12b 12dd_	.
12BB 12G 12d 12b 12dd_	.
12BBJ 12G 12d 12b 12dd]	.
=36	=36
12BBL 12G 12d 12b [12dd	.
12BB 12G 12d 12b 12dd_	.
12BBJ 12G 12d 12b 12dd]	.
12BBL 12G 12d 12b [12dd	.
12BB 12G 12d 12b 12dd_	.
12BBJ 12G 12d 12b 12dd]	.
=37	=37
12AAL 12G 12e 12cc#X [12ee	.
12AA 12G 12e 12cc#X 12ee_	.
12AAJ 12G 12e 12cc#X 12ee_	.
12AAL 12G 12e 12cc#X 12ee_	.
12AA 12G 12e 12cc#X 12ee_	.
12AAJ 12G 12e 12cc#X 12ee_	.
=38	=38
12AAL 12G 12e 12cc#X 12ee_	.
12AA 12G 12e 12cc#X 12ee_	.
12AAJ 12G 12e 12cc#X 12ee_	.
12AAL 12G 12e 12cc#X 12ee_	.
12AA 12G 12e 12cc#X 12ee_	.
12AAJ 12G 12e 12cc#X 12ee]	.
=39	=39
12AAL 12G 12e [12cc#X 12ee	.
12AA 12G 12e 12cc#_ 12ee	.
12AAJ 12G 12e 12cc#_ 12ee	.
12AAL 12G 12e 12cc#_ 12ee	.
12AA 12G 12e 12cc#_ 12ee	.
12AAJ 12G 12e 12cc#] 12ee	.
=40	=40
12AA#XL 12F# 12e 12f# 12cc#X	.
12AA#X 12F# 12e 12f# 12cc#	.
12AA#XJ 12F# 12e 12f# 12cc#X	.
12AA#XL 12F# 12e 12f# [12cc#	.
12AA#X 12F# 12e 12f# 12cc#_	.
12AA#XJ 12F# 12e 12f# 12cc#]	.
=41	=41
12BBL 12F# 12d 12f# [12dd	.
12BB 12F# 12d 12f# 12dd_	.
12BBJ 12F# 12d 12f# 12dd]	.
12DL 12F# 12d 12f# [12b	.
12D 12F# 12d 12f# 12b_	.
12DJ 12F# 12d 12f# 12b]	.
=42	=42
12F#L 12e 12f# [12cc#X	.
12F# 12e 12f# 12cc#_	.
12F#J 12e 12f# 12cc#]	.
12FF#L 12F# 12c#X 12f# [12a#X	.
[24FF#k [24F# [24c#X [24f# 24a#_	.
24FF#K] 24F#] 24c#] 24f#] 24a#_	.
12FF#J 12F# 12c#X 12f# 12a#]	.
=43	=43
[12BBL [12F# 12d 12f# [12b	.
12BB_ 12F#_ 12d 12f# 12b_	.
12BBJ] 12F#] 12d 12f# 12b_	.
[12C#XL 12d 12f# 12b_	.
24C#k] [24d [24f# 24b_	.
[24DK 24d] 24f#] 24b_	.
12DJ] 12d 12f# 12b]	.
=44	=44
[12EL 12c#X 12g 12b [12gg	.
12E_ 12c#X 12g 12b 12gg_	.
12EJ] 12c#X 12g 12b 12gg]	.
[12DL 12d 12g 12b [12gg	.
24Dk] [24d [24g [24b 24gg]	.
[24C#XK 24d] 24g] 24b] [24gg	.
12C#J] 12e 12g 12b 12gg]	.
=45	=45
[12DL 12d 12f# 12b [12ff#	.
12D_ 12d 12f# 12b 12ff#_	.
12DJ] 12d 12f# 12b 12ff#]	.
[12EL 12c#X 12g 12b [12ee	.
24Ek_ [24c#X [24g [24b 24ee]	.
24EK_ 24c#] 24g] 24b] [24ee	.
12EJ] 12c#X 12g 12b 12ee]	.
=46	=46
[12F#L 12d 12f# 12b [12dd	.
12F#_ 12d 12f# 12b 12dd_	.
12F#J] 12d 12f# 12b 12dd]	.
[12FF#L [12F# 12e 12f# 12a#X [12cc#X	.
24FF#k_ 24F#_ [24e [24f# [24a#X 24cc#]	.
24FF#K_ 24F#_ 24e] 24f#] 24a#] [24cc#X	.
12FF#J] 12F#] 12e 12f# 12a#X 12cc#]	.
=47	=47
[12BBL 12d 12f# [12b	.
12BB_ 12B 12b_	.
12BBJ] 12B 12b]	.
[12DL [12F# 12B 12b	.
12D_ 12F#_ 12B 12b	.
12DJ] 12F#] 12B 12b	.
=48	=48
[12E^L [12G 12B 12b	.
12E_ 12G_ 12cn 12b	.
12EJ_ 12G_ 12c 12b	.
12EL_ 12G_ 12c 12b	.
12E_ 12G_ 12c 12b	.
12EJ] 12G] 12c 12b	.
=49	=49
[12E#XL [12G#X 12c 12b	.
12E#_ 12G#_ 12c#X 12b	.
12E#J_ 12G#_ 12c#X 12b	.
12E#L_ 12G#_ 12c#X 12b	.
12E#_ 12G#_ 12c#X 12b	.
12E#J] 12G#] 12c#X 12b	.
=50	=50
[12F#L 12d 12b	.
12F#_ 12d 12b	.
12F#J] 12d 12b	.
[12FF#L [12F# 12e 12f# 12a#X	.
12FF#_ 12F#_ 12e 12f# 12a#	.
12FF#J] 12F#] 12e 12f# 12a#X	.
=51	=51
[12BBL 12d 12f# 12b	.
12BB_ 12B 12b	.
12BBJ] 12B 12b	.
[12DL [12F# 12B 12b	.
12D_ 12F#_ 12B 12b	.
12DJ] 12F#] 12B 12b	.
=52	=52
[12EL [12G 12B 12b	.
12E_ 12G_ 12cn 12b	.
12EJ_ 12G_ 12c 12b	.
12EL_ 12G_ 12c 12b	.
12E_ 12G_ 12c 12b	.
12EJ] 12G] 12c 12b	.
=53	=53
[12E-XL [12G 12c 12b	.
12E-_ 12G_ 12c#X 12b	.
12E-J_ 12G_ 12c#X 12b	.
12E-L_ 12G_ 12c#X 12b	.
12E-_ 12G_ 12c#X 12b	.
12E-J] 12G] 12c#X 12b	.
=54	=54
[12DL 12d 12g 12b	.
12D_ 12d 12g 12b	.
12DJ] 12d 12g 12b	.
[12DDL [12D 12cn 12d 12f# 12a	.
12DD_ 12D_ 12c 12d 12f# 12a	.
12DDJ] 12D] 12c 12d 12f# 12a	.
=55	=55
[12GGL [12D 12B 12d 12g	.
12GG_ 12D_ 12B 12d 12g	.
12GGJ] 12D] 12B 12d 12g	.
12BL 12d 12g	.
12B 12d 12g	.
12BJ 12d 12g	.
=56	=56
[12GL 12d [12g 12b	p
12G_ 12d 12g_ 12b	.
12GJ] 12d 12g] 12b	.
[12BL 12d 12g [12b	.
12B_ 12d 12g 12b_	.
48BKL] [48d [48g 48b_	.
16cJJ 16d] 16g] 16b] 16cc	.
=57	=57
[12dL 12g 12b [12dd	.
12d_ 12g 12b 12dd_	.
12dJ] 12g 12b 12dd]	.
[12BL 12d 12g [12b	.
24Bk] [24d [24g 24b_	.
[24GK 24d] 24g_ 24b]	.
12GJ] 12d 12g] 12b	.
=58	=58
12c#XL [12e 12g 12a [12ee	.
12c#X 12e_ 12g 12a 12ee_	.
12c#XJ 12e] 12g 12a 12ee]	.
12c#XL [12e 12g 12a [12ee	.
12c#X 12e_ 12g 12a 12ee_	.
[48c#XKL 48e] [48g [48a 48ee]	.
16c#JJ] 16e 16g] 16a] 16ee	.
=59	=59
[12AL 12c#X 12g [12a	.
12A_ 12c#X 12g 12a_	.
12AJ_ 12c#X 12g 12a_	.
12AL_ 12c#X 12g 12a_	.
24Ak] [24c#X [24g 24a_	.
[24AK 24c#] 24g] 24a_	.
12AJ] 12c#X 12g 12a]	.
=60	=60
[12cn^L 12e-X 12f# 12a [12cc	.
12c_ 12e-X 12f# 12a 12cc_	.
12cJ] 12e-X 12f# 12a 12cc]	.
[12BL 12e-X 12f# [12b	.
12B_ 12e-X 12f# 12b_	.
12BJ] 12e-X 12f# 12b]	.
=61	=61
[12AL 12d 12f# [12a 12cc	.
12A_ 12d 12f# 12a_ 12cc	.
12AJ] 12d 12f# 12a] 12cc	.
[12BL 12d 12g [12b	.
24Bk_ [24d [24g 24b_	.
24BL_ 24d] 24g] 24b] [24cc	.
48BK] [48d [48g [48b 48cc_	.
16cJJ 16d] 16g] 16b] 16cc]	.
=62	=62
[12dL 12g 12a [12dd	.
12d_ 12g 12a 12dd_	.
12d'J] 12g 12a 12dd]	.
[12DL 12d 12f# 12a [12ee	.
24Dk_ [24d [24f# [24a 24ee]	.
24DK_ 24d] 24f#] 24a] [24cc	.
12D'J] 12d 12f# 12a 12cc]	.
=63	=63
[12GL 12d 12g [12b	.
12G_ 12d 12g 12b_	.
12GJ_ 12d 12g 12b]	.
12GL_ 12d 12g 12b	.
12G_ 12d 12g 12b	.
12GJ] 12d 12g 12b	.
=64	=64
[12eL 12g 12b [12ee	.
12e_ 12g 12b 12ee_	.
12eJ] 12g 12b 12ee]	.
[12gL 12b [12gg	.
12g_ 12b 12gg_	.
48gKL_ [48b 48gg]	.
16f#JJ 16g] 16b] 16ff#	.
=65	=65
[12eL 12g 12b [12ee	.
12e_ 12g 12b 12ee_	.
12e'J] 12g 12b 12ee]	.
[12EL [12e 12g 12b	.
12E_ 12e_ 12g 12b	.
12E'J] 12e] 12g 12b	.
=66	=66
[12eL 12a 12cc [12ee	.
12e_ 12a 12cc 12ee_	.
12eJ] 12a 12cc 12ee]	.
[12gL 12a 12cc 12dd#X [12gg	.
12g_ 12a 12cc 12dd#X 12gg_	.
48gKL] [48a [48cc [48dd#X 48gg]	.
16f#JJ 16a] 16cc] 16dd#] 16ff#	.
=67	=67
[12eL 12g 12b [12ee	.
12e_ 12g 12b 12ee_	.
12eJ_ 12g 12b 12ee_	.
12eL_ 12g 12b 12ee_	.
24ek] [24g [24b 24ee]	.
[24EK 24g] 24b_	.
12EJ] 12g 12b]	.
=68	=68
[12c^L 12e-X 12f# 12a [12cc	.
12c_ 12e-X 12f# 12a 12cc_	.
12cJ] 12e-X 12f# 12a 12cc]	.
[12BL 12e-X 12f# [12b	.
12B_ 12e-X 12f# 12b_	.
12BJ] 12e-X 12f# 12b]	.
=69	=69
[12AL 12d 12f# [12a 12cc	.
12A_ 12d 12f# 12a_ 12cc	.
12AJ] 12d 12f# 12a] 12cc	.
[12BL 12d 12g [12b	.
24Bk_ [24d [24g 24b_	.
24BL_ 24d] 24g] 24b] [24cc	.
48BK] [48d [48g [48b 48cc_	.
16cJJ 16d] 16g] 16b] 16cc]	.
=70	=70
[12dL 12g 12a [12dd	.
12d_ 12g 12a 12dd_	.
12d'J] 12g 12a 12dd]	.
[12DL 12d 12f# 12a [12ee	.
24Dk_ [24d [24f# [24a 24ee]	.
24DK_ 24d] 24f#] 24a] [24cc	.
12D'J] 12d 12f# 12a 12cc]	.
=71	=71
[12GL 12d 12g [12b	.
12G_ 12d 12g 12b_	.
12GJ] 12d 12g 12b]	.
[12BL 12d 12g 12b	.
24Bk] [24d [24g [24b	.
24dK_ 24g] 24b] [24dd	.
12dJ] 12g 12b 12dd]	.
=72	=72
12c^L [12e-X 12f# 12a [12ee-X	.
12c 12e-_ 12f# 12a 12ee-_	.
12cJ 12e-] 12f# 12a 12ee-]	.
[12dL 12f# 12a [12dd	.
12d_ 12f# 12a 12dd_	.
12dJ] 12f# 12a 12dd]	.
=73	=73
[12cL 12e-X 12f# 12a [12cc	.
12c_ 12e-X 12f# 12a 12cc_	.
12cJ] 12e-X 12f# 12a 12cc]	.
[12BL 12d 12g [12b	.
24Bk_ [24d [24g 24b_	.
24BL_ 24d] 24g] 24b] [24cc	.
48BK] [48d [48g [48b 48cc_	.
16cJJ 16d] 16g] 16b] 16cc]	.
=74	=74
[12dL 12g 12a [12dd	.
12d_ 12g 12a 12dd_	.
12d'J] 12g 12a 12dd_	.
12dL 12g 12a 12dd_	.
12d 12g 12a 12dd_	.
12dJ 12g 12a 12dd_	.
=75	=75
[12DL 12d 12f# 12a 12dd]	.
12D_ 12d 12f# 12a 12een	.
12D'J] 12d 12f# 12a 12cc	.
12cL 12d 12f# 12a 12b	.
12c 12d 12f# 12a 12cc	.
12cJ 12d 12f# 12a	.
=76	=76
[12GL 12B 12d [12g	.
12G_ 12B 12d 12g_	.
12G`J] 12B 12d 12g]	.
[12GGL 12B 12d 12g	.
12GG_ 12B 12d 12g	.
12GG`J] 12B 12d 12g	.
=77	=77
[12GGGL 12B 12d 12g	.
12GGG_ 12B 12d 12g	.
12GGG`J] 12B 12d 12g	.
[12GGGL [12GG 12B 12e 12g	.
12GGG_ 12GG_ 12B 12e 12g	.
12GGG`J] 12GG] 12B 12e 12g	.
=78	=78
[12AAAL [12AA 12c 12e 12g	.
12AAA_ 12AA_ 12c 12e 12g	.
12AAAJ_ 12AA_ 12c 12e 12g	.
12AAAL_ 12AA_ 12c 12e 12g	.
12AAA_ 12AA_ 12c 12e 12g	.
12AAAJ] 12AA] 12c 12e 12g	.
=79	=79
[12AAA#XL [12AA#X 12c#X 12e 12g	.
12AAA#_ 12AA#_ 12c#X 12e 12g	.
12AAA#J_ 12AA#_ 12c#X 12e 12g	.
12AAA#L_ 12AA#_ 12c#X 12e 12f#	.
12AAA#_ 12AA#_ 12c#X 12e 12f#	.
12AAA#J] 12AA#] 12c#X 12e 12f#	.
=80	=80
12BBBL 12BB 12B 12d#X 12f#	.
12BB 12B	.
12BBJ 12B	.
12BBL 12B	.
12BB 12B	.
12BBJ 12B	.
=81	=81
12BBL 12B	.
12BB 12B	.
12BBJ 12B	.
12BBL 12B	.
[24BBk [24B	.
24BBK] 24B_	.
12BBJ 12B]	.
=82	=82
12BB^L [12B	.
12E 12G 12B_ 12e 12g	.
12BBJ 12E 12G 12B_ 12e 12g	.
12BBL 12E 12G 12B_ 12e 12g	.
[24BBk [24E [24G 24B_ [24e [24g	.
24BBK] 24E] 24G] 24B] 24e] 24g_	.
12BBJ 12E 12G 12B 12e 12g]	.
=83	=83
12BBL 12D#X 12F# 12B 12d#X [12f#	.
12BB 12B 12f#_	.
12BBJ 12B 12f#]	.
12BBL [12B	.
[24BBk 24B_	.
24BBK] 24B_	.
12BBJ 12B]	.
=84	=84
12BBL [12B	.
12F# 12A 12B_ 12f# 12a	.
12BBJ 12F# 12B_ 12f# 12a	.
12BBL 12F# 12A 12B_ 12f# 12a	.
[24BBk [24F# [24A 24B_ [24f# [24a	.
24BBK] 24F#] 24A] 24B] 24f#] 24a_	.
12BBJ 12F# 12A 12B 12f# 12a]	.
=85	=85
12BBL 12E 12G 12B 12e [12g	.
12BB 12B 12g_	.
12BBJ 12B 12g]	.
12BBL 12B	.
12BB 12B	.
12BBJ 12B	.
=86	=86
12BBL [12B	.
12G 12B_ 12g 12b	.
12BBJ 12G 12B] 12g 12b	.
12BBL 12G 12B 12g [12b	.
[24BBk [24G [24B [24g 24b_	.
24BBK] 24G] 24B] 24g] 24b_	.
12BBJ 12G 12B 12g 12b]	.
=87	=87
12BBL 12F# 12A 12f# [12a	.
12BB 12B 12a_	.
12BB'J 12B 12a]	.
12BBL [12B	.
12BB 12B_	.
12BBJ 12B]	.
=88	=88
12BBL [12B	.
12A 12B_ 12c 12a 12cc	.
12BBJ 12A 12B] 12c 12a 12cc	.
12BBL 12A 12c 12a [12cc	.
[24BBk [24A [24c [24a 24cc_	.
24BBK] 24A] 24c] 24a] 24cc_	.
12BBJ 12A 12c 12a 12cc]	.
=89	=89
12BBL 12G 12B 12g [12b	.
12BB 12B 12b_	.
12BBJ 12B 12b]	.
12BBL 12B	.
12BB 12B	.
12BBJ 12B	.
=90	=90
12BBL 12G 12d 12b [12dd	.
12BB 12G 12d 12b 12dd_	.
12BBJ 12G 12d 12b 12dd_	.
12BBL 12G 12d 12b 12dd_	.
12BB 12G 12d 12b 12dd_	.
12BBJ 12G 12d 12b 12dd]	.
=91	=91
12BBL 12G 12d 12b [12dd	.
12BB 12G 12d 12b 12dd_	.
12BBJ 12G 12d 12b 12dd]	.
12BBL 12G 12d 12b [12dd	.
12BB 12G 12d 12b 12dd_	.
12BBJ 12G 12d 12b 12dd]	.
=92	=92
12AAL 12G 12e 12cc#X [12ee	.
12AA 12G 12e 12cc#X 12ee_	.
12AAJ 12G 12e 12cc#X 12ee_	.
12AAL 12G 12e 12cc#X 12ee_	.
12AA 12G 12e 12cc#X 12ee_	.
12AAJ 12G 12e 12cc#X 12ee_	.
=93	=93
12AAL 12G 12e 12cc#X 12ee_	.
12AA 12G 12e 12cc#X 12ee_	.
12AAJ 12G 12e 12cc#X 12ee_	.
12AAL 12G 12e 12cc#X 12ee_	.
12AA 12G 12e 12cc#X 12ee_	.
12AAJ 12G 12e 12cc#X 12ee]	.
=94	=94
12AAL 12G 12e [12cc#X 12ee	.
12AA 12G 12e 12cc#_ 12ee	.
12AAJ 12G 12e 12cc#_ 12ee	.
12AAL 12G 12e 12cc#_ 12ee	.
12AA 12G 12e 12cc#_ 12ee	.
12AAJ 12G 12e 12cc#] 12ee	.
=95	=95
12AA#XL 12F# 12e 12f# 12cc#X	.
12AA#X 12F# 12e 12f# 12cc#	.
12AA#XJ 12F# 12e 12f# 12cc#X	.
12AA#XL 12F# 12e 12f# 12cc#	.
12AA#X 12F# 12e 12f# 12cc#X	.
12AA#XJ 12F# 12e 12f# 12cc#	.
=96	=96
12BBL 12F# 12d 12f# [12dd	.
12BB 12F# 12d 12f# 12dd_	.
12BBJ 12F# 12d 12f# 12dd]	.
12DL 12F# 12d 12f# [12b	.
12D 12F# 12d 12f# 12b_	.
12DJ 12F# 12d 12f# 12b]	.
=97	=97
12F#L 12e 12f# [12cc#X	.
12F# 12e 12f# 12cc#_	.
12F#J 12e 12f# 12cc#]	.
12FF#L 12F# 12c#X 12f# [12a#X	.
[24FF#k [24F# [24c#X [24f# 24a#_	.
24FF#K] 24F#] 24c#] 24f#] 24a#_	.
12FF#J 12F# 12c#X 12f# 12a#]	.
=98	=98
[12BBL [12F# 12d 12f# [12b	.
12BB_ 12F#_ 12d 12f# 12b_	.
12BBJ] 12F#] 12d 12f# 12b]	.
[12C#XL 12d 12f# 12b	.
24C#k] [24d [24f# [24b	.
[24DK 24d] 24f#] 24b]	.
12DJ] 12d 12f# 12b	.
=99	=99
[12EL 12c#X 12g 12b [12gg	.
12E_ 12c#X 12g 12b 12gg_	.
12EJ] 12c#X 12g 12b 12gg]	.
[12DL 12d 12g 12b [12gg	.
24Dk] [24d [24g [24b 24gg_	.
[24C#XL 24d] 24g] 24b] 24gg_	.
48C#K_ [48e [48g [48b 48gg]	.
16C#JJ] 16e] 16g] 16b] 16gg	.
=100	=100
[12DL 12d 12f# 12b [12ff#	.
12D_ 12d 12f# 12b 12ff#_	.
12DJ] 12d 12f# 12b 12ff#]	.
[12EL 12c#X 12g 12b [12ee	.
12E_ 12c#X 12g 12b 12ee_	.
12EJ] 12c#X 12g 12b 12ee]	.
=101	=101
[12F#L 12d 12f# 12b [12dd	.
12F#_ 12d 12f# 12b 12dd_	.
12F#'J] 12d 12f# 12b 12dd]	.
[12FF#L 12e 12f# 12a#X [12cc#X	.
24FF#k_ [24e [24f# [24a#X 24cc#]	.
24FF#K_ 24e] 24f#] 24a#] [24cc#X	.
12FF#'J] 12e 12f# 12a#X 12cc#]	.
=102	=102
[12BBL 12d 12f# [12b	.
12BB_ 12B 12b_	.
12BBJ] 12B 12b]	.
[12DL [12F# 12B 12b	.
12D_ 12F#_ 12B 12b	.
12DJ] 12F#] 12B 12b	.
=103	=103
[12E^L [12G 12B 12b	.
12E_ 12G_ 12cn 12b	.
12EJ_ 12G_ 12c 12b	.
12EL_ 12G_ 12c 12b	.
12E_ 12G_ 12c 12b	.
12EJ] 12G] 12c 12b	.
=104	=104
[12E#X^L [12G#X 12c 12b	.
12E#_ 12G#_ 12c#X 12b	.
12E#J_ 12G#_ 12c#X 12b	.
12E#L_ 12G#_ 12c#X 12b	.
12E#_ 12G#_ 12c#X 12b	.
12E#J] 12G#] 12c#X 12b	.
=105	=105
[12F#L 12d 12f# 12b	.
12F#_ 12d 12f# 12b	.
12F#J] 12d 12f# 12b	.
[12FF#L 12e 12f# 12a#X	.
12FF#_ 12e 12f# 12a#	.
12FF#J] 12e 12f# 12a#X	.
=106	=106
[12BBL 12d 12f# 12b	.
12BB_ 12B 12b	.
12BBJ] 12B 12b	.
[12DL [12F# 12B 12b	.
12D_ 12F#_ 12B 12b	.
12DJ] 12F#] 12B 12b	.
=107	=107
[12EL [12G 12B 12b	.
12E_ 12G_ 12cn 12b	.
12EJ_ 12G_ 12c 12b	.
12EL_ 12G_ 12c 12b	.
12E_ 12G_ 12c 12b	.
12EJ] 12G] 12c 12b	.
=108	=108
[12CL [12G 12e 12b	.
12C_ 12G_ 12e 12a#X	.
12CJ_ 12G_ 12e 12a#	.
12CL_ 12G_ 12e 12a#X	.
12C_ 12G_ 12e 12a#	.
12CJ] 12G] 12e 12a#X	.
=109	=109
[12BBL 12e 12g 12b	.
12BB_ 12e 12g 12b	.
12BBJ] 12e 12g 12b	.
[12BBL 12c 12e 12an	.
12BB_ 12c 12e 12a	.
12BBJ] 12c 12e 12a	.
=110	=110
[12BBL 12B 12e 12g	.
12BB_ 12B 12e 12g	.
12BBJ] 12B 12e 12g	.
[12BBBL [12BB 12A 12B 12d#X 12f#	.
12BBB_ 12BB_ 12A 12B 12d#X 12f#	.
12BBBJ] 12BB] 12A 12B 12d#X 12f#	.
=111	=111
[12EEL 12G 12B [12e	.
12EE_ 12G 12B 12e_	.
12EEJ] 12G 12B 12e]	.
12GL 12B [12e	.
12G 12B 12e_	.
[48GKL [48B 48e_	.
16GJJ] 16B] 16e]	.
=112	=112
[12FF#L 12A [12B 12d#X	.
12FF#_ 12A 12B_ 12d#	.
12FF#J] 12A 12B] 12d#X	.
[12FF#L 12A 12B 12d#	.
12FF#_ 12A 12B 12d#X	.
48FF#KL] [48A [48B [48d#	.
16FF#JJ 16A] 16B] 16d#]	.
=113	=113
[12BBBL 12A 12B 12d#X [12f#	.
12BBB_ 12A 12B 12d#X 12f#_	.
12BBBJ] 12A 12B 12d#X 12f#]	.
12AL 12B 12d#X [12g	.
12A 12B 12d#X 12g_	.
[48AKL [48B [48d#X 48g]	.
16AJJ] 16B] 16d#] 16f#	.
=114	=114
[12EEL 12G 12B [12e	.
12EE_ 12G 12B 12e_	.
12EEJ] 12G 12B 12e]	.
[12EEL 12G 12B 12e	.
12EE_ 12G 12B 12e	.
48EEKL] [48G [48B [48e	.
16FF#JJ 16G] 16B] 16e]	.
=115	=115
[12GGL 12G 12B 12e [12b	.
12GG_ 12G 12B 12e 12b_	.
12GGJ] 12G 12B 12e 12b]	.
12GL 12B 12e [12a	.
12G 12B 12e 12a_	.
[48GKL [48B [48e 48a]	.
16GJJ] 16B] 16e] 16b	.
=116	=116
[12AAL 12F# 12c 12e [12cc	.
12AA_ 12F# 12c 12e 12cc_	.
12AAJ] 12F# 12c 12e 12cc_	.
[12BBL 12F# 12A 12e 12cc_	.
24BBk_ [24F# [24A [24e 24cc]	.
24BBL_ 24F#] 24A] 24e] [24a	.
48BBK] [48F# [48A [48e 48a_	.
16CJJ 16F#] 16A] 16e] 16a]	.
=117	=117
[12BBL 12F# 12B 12e [12f#	.
12BB_ 12F# 12B 12e 12f#_	.
12BBJ] 12F# 12B 12e 12f#]	.
[12BBBL 12F# 12B 12d#X [12b	.
12BBB_ 12F# 12B 12d#X 12b_	.
12BBBJ] 12F# 12B 12d#X 12b]	.
=118	=118
[12EEL 12G 12B 12e [12g	.
12EE_ 12G 12B 12e 12g_	.
12EEJ] 12G 12B 12e 12g]	.
12GL 12B 12e	.
12G 12B 12e	.
12GJ 12B 12e	.
=119	=119
12G#XL 12dn 12e [12ee	.
12G#X 12d 12e 12ee_	.
12G#XJ 12d 12e 12ee]	.
12G#XL 12d 12e [12ee	.
12G#X 12d 12e 12ee_	.
[48G#XKL [48d [48e 48ee]	.
16G#JJ] 16d] 16e] 16ee	.
=120	=120
[12EEL [12E 12A 12c#X 12e [12ee	.
12EE_ 12E_ 12A 12c#X 12e 12ee_	.
12EEJ] 12E] 12A 12c#X 12e 12ee]	.
[12EEL [12E 12A 12c#X [12e	.
24EEk_ 24E_ [24A [24c#X 24e_	.
24EEL_ 24E_ 24A] 24c#] 24e]	.
48EEK] 48E] [48A [48c#X [48e	.
16EEJJ 16E 16A] 16c#] 16e]	.
=121	=121
[12EEL [12E 12A 12cn 12e [12ee	.
12EE_ 12E_ 12A 12c 12e 12ee_	.
12EEJ] 12E] 12A 12c 12e 12ee]	.
12AL 12c 12e [12ee	.
12A 12c 12e 12ee_	.
[48AKL [48c [48e 48ee]	.
16AJJ] 16c] 16e] 16ee	.
=122	=122
[12EEL [12E 12G#X 12B 12e [12ee	.
12EE_ 12E_ 12G#X 12B 12e 12ee_	.
12EEJ] 12E] 12G#X 12B 12e 12ee]	.
[12EEL [12E 12G#X 12B [12e	.
24EEk_ 24E_ [24G#X [24B 24e_	.
24EEL_ 24E_ 24G#] 24B] 24e]	.
48EEK] 48E] [48G#X [48B [48e	.
16EEJJ 16E 16G#] 16B] 16e]	.
=123	=123
[12EEL [12E 12Gn 12B 12e [12ee	.
12EE_ 12E_ 12G 12B 12e 12ee_	.
12EEJ] 12E] 12G 12B 12e 12ee]	.
12GL 12B 12e [12ee	.
12G 12B 12e 12ee_	.
[48GKL [48B [48e 48ee]	.
16GJJ] 16B] 16e] 16ee	.
=124	=124
[12CCL [12C 12G 12c 12e-X [12gg	fff
12CC_ 12C_ 12G 12c 12e-X 12gg_	.
12CCJ] 12C] 12G 12c 12e-X 12gg_	.
[12CCL [12C 12G 12c 12e-X 12gg_	.
12CC_ 12C_ 12G 12c 12e-X 12gg_	.
48CCKL] 48C] [48G [48c [48e-X 48gg_	.
16CCJJ 16C 16G] 16c] 16e-] 16gg_	.
=125	=125
[12CCL [12C 12G 12c 12e-X 12gg_	.
12CC_ 12C_ 12G 12c 12e-X 12gg_	.
12CCJ_ 12C_ 12G 12c 12e-X 12gg_	.
12CCL_ 12C_ 12G 12c 12e-X 12gg_	.
12CC_ 12C_ 12G 12c 12e-X 12gg_	.
12CCJ_ 12C_ 12G 12c 12e-X 12gg_	.
=126	=126
12CCL_ 12C_ 12G 12c 12e-X 12gg_	.
12CC_ 12C_ 12G 12c 12e-X 12gg_	.
12CCJ_ 12C_ 12G 12c 12e-X 12gg]	.
12CCL_ 12C_ 12G 12c 12e-X	.
12CC_ 12C_ 12G 12c 12e-	.
12CCJ_ 12C_ 12G 12c 12e-X	.
=127	=127
12CCL_ 12C_ 12G 12e-X [12g	.
12CC_ 12C_ 12G 12e-X 12g_	.
12CCJ_ 12C_ 12G 12e-X 12g]	.
12CCL_ 12C_ 12G 12e-X [12g	.
12CC_ 12C_ 12G 12e-X 12g_	.
48CCKL_ 48C_ [48G [48e-X 48g]	.
16CCJJ] 16C] 16G] 16e-] 16a	.
=128	=128
[12BBBnL [12BBn 12A 12d#X [12b	.
12BBB_ 12BB_ 12A 12d#X 12b_	.
12BBBJ_ 12BB_ 12A 12d#X 12b_	.
12BBBL_ 12BB_ 12G 12en 12b_	.
12BBB_ 12BB_ 12G 12e 12b_	.
12BBBJ_ 12BB_ 12G 12e 12b_	.
=129	=129
12BBBnL_ 12BBn_ 12F# 12B 12e 12b_	.
12BBB_ 12BB_ 12F# 12B 12e 12b_	.
12BBBJ_ 12BB_ 12F# 12B 12e 12b]	.
12BBBL_ 12BB_ 12F# 12B 12d#X	.
12BBB_ 12BB_ 12F# 12B 12d#	.
12BBBJ] 12BB] 12F# 12B 12d#X	.
=130	=130
[12EEL 12G 12B 12e [12b	.
12EE_ 12G 12B 12e 12b_	.
12EEJ_ 12G 12B 12e 12b_	.
12EEL_ 12G 12B 12e 12b_	.
12EE_ 12G 12B 12e 12b_	.
12EEJ_ 12G 12B 12e 12b_	.
=131	=131
12EEL_ 12G 12B 12e 12b_	.
24EEk_ [24G [24B [24e 24b]	.
24EEK_ 24G] 24B] 24e] [24ee	.
12EEJ_ 12G 12B 12e 12ee]	.
12EEL_ 12G 12B 12e [12gg	.
24EEk_ [24G [24B [24e 24gg]	.
24EEK_ 24G] 24B] 24e] [24ff#	.
12EEJ_ 12G 12B 12e 12ff#]	.
=132	=132
12EEL_ 12G 12B 12e [12ee	.
12EE_ 12G 12B 12e 12ee_	.
12EEJ_ 12G 12B 12e 12ee_	.
12EEL_ 12G 12B 12e 12ee_	.
24EEk_ [24G [24B [24e 24ee]	.
24EEK_ 24G] 24B] 24e] [24b	.
12EEJ] 12G 12B 12e 12b]	.
=133	=133
[12EEL 12F# 12A 12c 12e [12a	.
24EEk_ [24F# [24A [24c [24e 24a]	.
24EEK_ 24F#] 24A] 24c] 24e] [24g	.
12EEJ_ 12F# 12A 12c 12e 12g]	.
12EEL_ 12F# 12A 12c 12e [12a	.
24EEk_ [24F# [24A [24c [24e 24a]	.
24EEK_ 24F#] 24A] 24c] 24e] [24b	.
12EEJ] 12F# 12A 12c 12e 12b]	.
=134	=134
[12EEL [12BB 12G 12B [12e	.
12EE_ 12BB_ 12G 12B 12e_	.
12EEJ_ 12BB_ 12G 12B 12e_	.
12EEL_ 12BB_ 12G 12B 12e_	.
12EE_ 12BB_ 12G 12B 12e_	.
12EEJ_ 12BB_ 12G 12B 12e_	.
=135	=135
12EEL_ 12BB_ 12G 12B 12e_	.
24EEk_ 24BB] [24G [24B 24e_	.
24EEK_ [24E 24G] 24B] 24e_	.
12EEJ] 12E] 12G 12B 12e]	.
[12GL 12B 12e	.
24Gk_ [24B [24e	.
[24F#K 24G] 24B] 24e]	.
12F#J] 12G 12B 12e	.
=136	=136
[12EL 12G 12B 12e	.
12E_ 12G 12B 12e	.
12EJ_ 12G 12B 12e	.
12EL_ 12G 12B 12e	.
24Ek] [24G [24B [24e	.
[24BBK 24G] 24B] 24e]	.
12BBJ] 12G 12B 12e	.
=137	=137
[12AAL 12F# 12A 12c 12e	.
24AAk] [24F# [24A [24c [24e	.
[24GGK 24F#] 24A] 24c] 24e]	.
12GGJ] 12F# 12A 12c 12e	.
[12AAL 12F# 12A 12c 12e	.
24AAk] [24F# [24A [24c [24e	.
[24BBK 24F#] 24A] 24c] 24e]	.
12BBJ] 12F# 12A 12c 12e	.
=138	=138
[12EEL 12G 12B 12e	.
12EE_ 12G 12B 12e	.
12EEJ_ 12G 12B 12e	.
12EEL_ 12G 12B 12e	.
12EE_ 12G 12B 12e	.
12EEJ] 12G 12B 12e	.
=139	=139
[12EEL 12G 12B 12e	.
12EE_ 12G 12B 12e	.
12EEJ_ 12G 12B 12e	.
12EEL_ 12G 12B 12e	.
12EE_ 12G 12B 12e	.
12EEJ] 12G 12B 12e	.
=140	=140
[2EE [2G [2B [2e	.
=141	=141
2EE;] 2G] 2B] 2e]	.
==	==
*-	*-
